images/50506075.svg

<?xml version="1.0" encoding="UTF-8"?>
<svg xmlns="http://www.w3.org/2000/svg" xmlns:xlink="http://www.w3.org/1999/xlink" width="300pt" height="300pt" viewBox="0 0 300 300" version="1.1">
<defs>
<g>
<symbol overflow="visible" id="glyph0-0">
<path style="stroke:none;" d="M 0.453125 1.59375 L 0.453125 -6.34375 L 4.953125 -6.34375 L 4.953125 1.59375 Z M 0.953125 1.09375 L 4.453125 1.09375 L 4.453125 -5.84375 L 0.953125 -5.84375 Z M 0.953125 1.09375 "/>
</symbol>
<symbol overflow="visible" id="glyph0-1">
<path style="stroke:none;" d="M 3.546875 -5.953125 C 2.898438 -5.953125 2.382812 -5.710938 2 -5.234375 C 1.625 -4.753906 1.4375 -4.101562 1.4375 -3.28125 C 1.4375 -2.445312 1.625 -1.789062 2 -1.3125 C 2.382812 -0.832031 2.898438 -0.59375 3.546875 -0.59375 C 4.191406 -0.59375 4.703125 -0.832031 5.078125 -1.3125 C 5.453125 -1.789062 5.640625 -2.445312 5.640625 -3.28125 C 5.640625 -4.101562 5.453125 -4.753906 5.078125 -5.234375 C 4.703125 -5.710938 4.191406 -5.953125 3.546875 -5.953125 Z M 3.546875 -6.6875 C 4.460938 -6.6875 5.195312 -6.375 5.75 -5.75 C 6.300781 -5.132812 6.578125 -4.3125 6.578125 -3.28125 C 6.578125 -2.238281 6.300781 -1.410156 5.75 -0.796875 C 5.195312 -0.179688 4.460938 0.125 3.546875 0.125 C 2.617188 0.125 1.878906 -0.179688 1.328125 -0.796875 C 0.773438 -1.410156 0.5 -2.238281 0.5 -3.28125 C 0.5 -4.3125 0.773438 -5.132812 1.328125 -5.75 C 1.878906 -6.375 2.617188 -6.6875 3.546875 -6.6875 Z M 3.546875 -6.6875 "/>
</symbol>
<symbol overflow="visible" id="glyph0-2">
<path style="stroke:none;" d="M 0.890625 -6.5625 L 1.765625 -6.5625 L 1.765625 -3.875 L 5 -3.875 L 5 -6.5625 L 5.890625 -6.5625 L 5.890625 0 L 5 0 L 5 -3.125 L 1.765625 -3.125 L 1.765625 0 L 0.890625 0 Z M 0.890625 -6.5625 "/>
</symbol>
<symbol overflow="visible" id="glyph0-3">
<path style="stroke:none;" d="M 0.890625 -6.5625 L 2.078125 -6.5625 L 4.984375 -1.078125 L 4.984375 -6.5625 L 5.84375 -6.5625 L 5.84375 0 L 4.65625 0 L 1.75 -5.484375 L 1.75 0 L 0.890625 0 Z M 0.890625 -6.5625 "/>
</symbol>
<symbol overflow="visible" id="glyph1-0">
<path style="stroke:none;" d="M 0.40625 1.421875 L 0.40625 -5.640625 L 4.40625 -5.640625 L 4.40625 1.421875 Z M 0.84375 0.96875 L 3.953125 0.96875 L 3.953125 -5.1875 L 0.84375 -5.1875 Z M 0.84375 0.96875 "/>
</symbol>
<symbol overflow="visible" id="glyph1-1">
<path style="stroke:none;" d="M 1.53125 -0.671875 L 4.296875 -0.671875 L 4.296875 0 L 0.59375 0 L 0.59375 -0.671875 C 0.882812 -0.972656 1.289062 -1.382812 1.8125 -1.90625 C 2.332031 -2.4375 2.65625 -2.773438 2.78125 -2.921875 C 3.039062 -3.203125 3.21875 -3.441406 3.3125 -3.640625 C 3.414062 -3.835938 3.46875 -4.03125 3.46875 -4.21875 C 3.46875 -4.53125 3.359375 -4.785156 3.140625 -4.984375 C 2.921875 -5.179688 2.640625 -5.28125 2.296875 -5.28125 C 2.046875 -5.28125 1.78125 -5.234375 1.5 -5.140625 C 1.226562 -5.054688 0.9375 -4.925781 0.625 -4.75 L 0.625 -5.546875 C 0.945312 -5.679688 1.242188 -5.78125 1.515625 -5.84375 C 1.796875 -5.90625 2.050781 -5.9375 2.28125 -5.9375 C 2.882812 -5.9375 3.363281 -5.785156 3.71875 -5.484375 C 4.082031 -5.179688 4.265625 -4.78125 4.265625 -4.28125 C 4.265625 -4.039062 4.21875 -3.8125 4.125 -3.59375 C 4.03125 -3.375 3.867188 -3.117188 3.640625 -2.828125 C 3.566406 -2.753906 3.351562 -2.535156 3 -2.171875 C 2.65625 -1.816406 2.164062 -1.316406 1.53125 -0.671875 Z M 1.53125 -0.671875 "/>
</symbol>
</g>
</defs>
<g id="surface13277">
<rect x="0" y="0" width="300" height="300" style="fill:rgb(100%,100%,100%);fill-opacity:1;stroke:none;"/>
<path style="fill:none;stroke-width:1.2;stroke-linecap:butt;stroke-linejoin:miter;stroke:rgb(100%,0%,0%);stroke-opacity:1;stroke-miterlimit:10;" d="M 36.851562 155.988281 L 45.222656 149.191406 "/>
<path style="fill:none;stroke-width:1.2;stroke-linecap:butt;stroke-linejoin:miter;stroke:rgb(0%,0%,0%);stroke-opacity:1;stroke-miterlimit:10;" d="M 45.222656 149.191406 L 53.597656 142.390625 "/>
<path style="fill:none;stroke-width:1.2;stroke-linecap:butt;stroke-linejoin:miter;stroke:rgb(100%,0%,0%);stroke-opacity:1;stroke-miterlimit:10;" d="M 33.648438 152.050781 L 42.023438 145.25 "/>
<path style="fill:none;stroke-width:1.2;stroke-linecap:butt;stroke-linejoin:miter;stroke:rgb(0%,0%,0%);stroke-opacity:1;stroke-miterlimit:10;" d="M 42.023438 145.25 L 50.398438 138.449219 "/>
<path style=" stroke:none;fill-rule:nonzero;fill:rgb(100%,100%,100%);fill-opacity:1;" d="M 27.25 148.519531 L 35.25 148.519531 L 35.25 159.519531 L 27.25 159.519531 Z M 27.25 148.519531 "/>
<g style="fill:rgb(100%,0%,0%);fill-opacity:1;">
  <use xlink:href="#glyph0-1" x="27.25" y="157.182617"/>
</g>
<path style="fill:none;stroke-width:1.2;stroke-linecap:butt;stroke-linejoin:miter;stroke:rgb(0%,0%,0%);stroke-opacity:1;stroke-miterlimit:10;" d="M 52 140.421875 L 50.296875 129.769531 "/>
<path style="fill:none;stroke-width:1.2;stroke-linecap:butt;stroke-linejoin:miter;stroke:rgb(0%,0%,100%);stroke-opacity:1;stroke-miterlimit:10;" d="M 50.296875 129.769531 L 48.597656 119.117188 "/>
<path style="fill:none;stroke-width:1.2;stroke-linecap:butt;stroke-linejoin:miter;stroke:rgb(0%,0%,0%);stroke-opacity:1;stroke-miterlimit:10;" d="M 52 140.421875 L 72.152344 148.125 "/>
<path style=" stroke:none;fill-rule:nonzero;fill:rgb(100%,100%,100%);fill-opacity:1;" d="M 39.597656 111.117188 L 58.597656 111.117188 L 58.597656 127.117188 L 39.597656 127.117188 Z M 39.597656 111.117188 "/>
<g style="fill:rgb(0%,0%,100%);fill-opacity:1;">
  <use xlink:href="#glyph0-2" x="39.597656" y="119.780273"/>
</g>
<g style="fill:rgb(0%,0%,100%);fill-opacity:1;">
  <use xlink:href="#glyph1-1" x="46.612305" y="124.663086"/>
</g>
<g style="fill:rgb(0%,0%,100%);fill-opacity:1;">
  <use xlink:href="#glyph0-3" x="51.5625" y="119.780273"/>
</g>
<path style="fill:none;stroke-width:1.2;stroke-linecap:butt;stroke-linejoin:miter;stroke:rgb(0%,0%,0%);stroke-opacity:1;stroke-miterlimit:10;" d="M 72.152344 148.125 L 88.898438 134.527344 "/>
<path style="fill:none;stroke-width:1.2;stroke-linecap:butt;stroke-linejoin:miter;stroke:rgb(0%,0%,0%);stroke-opacity:1;stroke-miterlimit:10;" d="M 77.027344 150.707031 L 90.425781 139.828125 "/>
<path style="fill:none;stroke-width:1.2;stroke-linecap:butt;stroke-linejoin:miter;stroke:rgb(0%,0%,0%);stroke-opacity:1;stroke-miterlimit:10;" d="M 75.554688 169.429688 L 72.152344 148.125 "/>
<path style="fill:none;stroke-width:1.2;stroke-linecap:butt;stroke-linejoin:miter;stroke:rgb(0%,0%,0%);stroke-opacity:1;stroke-miterlimit:10;" d="M 88.898438 134.527344 L 109.050781 142.234375 "/>
<path style="fill:none;stroke-width:1.2;stroke-linecap:butt;stroke-linejoin:miter;stroke:rgb(0%,0%,0%);stroke-opacity:1;stroke-miterlimit:10;" d="M 109.050781 142.234375 L 112.453125 163.539062 "/>
<path style="fill:none;stroke-width:1.2;stroke-linecap:butt;stroke-linejoin:miter;stroke:rgb(0%,0%,0%);stroke-opacity:1;stroke-miterlimit:10;" d="M 104.378906 145.164062 L 107.101562 162.207031 "/>
<path style="fill:none;stroke-width:1.2;stroke-linecap:butt;stroke-linejoin:miter;stroke:rgb(0%,0%,0%);stroke-opacity:1;stroke-miterlimit:10;" d="M 112.453125 163.539062 L 122.53125 167.390625 "/>
<path style="fill:none;stroke-width:1.2;stroke-linecap:butt;stroke-linejoin:miter;stroke:rgb(0%,0%,100%);stroke-opacity:1;stroke-miterlimit:10;" d="M 122.53125 167.390625 L 132.605469 171.242188 "/>
<path style="fill:none;stroke-width:1.2;stroke-linecap:butt;stroke-linejoin:miter;stroke:rgb(0%,0%,0%);stroke-opacity:1;stroke-miterlimit:10;" d="M 112.453125 163.539062 L 95.707031 177.136719 "/>
<path style="fill:none;stroke-width:1.2;stroke-linecap:butt;stroke-linejoin:miter;stroke:rgb(0%,0%,100%);stroke-opacity:1;stroke-miterlimit:10;" d="M 132.605469 171.242188 L 140.980469 164.441406 "/>
<path style="fill:none;stroke-width:1.2;stroke-linecap:butt;stroke-linejoin:miter;stroke:rgb(0%,0%,0%);stroke-opacity:1;stroke-miterlimit:10;" d="M 140.980469 164.441406 L 149.355469 157.644531 "/>
<path style=" stroke:none;fill-rule:nonzero;fill:rgb(100%,100%,100%);fill-opacity:1;" d="M 125.605469 165.742188 L 139.605469 165.742188 L 139.605469 176.742188 L 125.605469 176.742188 Z M 125.605469 165.742188 "/>
<g style="fill:rgb(0%,0%,100%);fill-opacity:1;">
  <use xlink:href="#glyph0-3" x="125.605469" y="174.405273"/>
  <use xlink:href="#glyph0-2" x="132.583008" y="174.405273"/>
</g>
<path style="fill:none;stroke-width:1.2;stroke-linecap:butt;stroke-linejoin:miter;stroke:rgb(0%,0%,0%);stroke-opacity:1;stroke-miterlimit:10;" d="M 149.355469 157.644531 L 159.429688 161.496094 "/>
<path style="fill:none;stroke-width:1.2;stroke-linecap:butt;stroke-linejoin:miter;stroke:rgb(0%,0%,100%);stroke-opacity:1;stroke-miterlimit:10;" d="M 159.429688 161.496094 L 169.507812 165.347656 "/>
<path style="fill:none;stroke-width:1.2;stroke-linecap:butt;stroke-linejoin:miter;stroke:rgb(0%,0%,0%);stroke-opacity:1;stroke-miterlimit:10;" d="M 153.183594 153.671875 L 161.242188 156.753906 "/>
<path style="fill:none;stroke-width:1.2;stroke-linecap:butt;stroke-linejoin:miter;stroke:rgb(0%,0%,100%);stroke-opacity:1;stroke-miterlimit:10;" d="M 161.242188 156.753906 L 169.304688 159.835938 "/>
<path style="fill:none;stroke-width:1.2;stroke-linecap:butt;stroke-linejoin:miter;stroke:rgb(0%,0%,100%);stroke-opacity:1;stroke-miterlimit:10;" d="M 145.953125 136.339844 L 147.652344 146.992188 "/>
<path style="fill:none;stroke-width:1.2;stroke-linecap:butt;stroke-linejoin:miter;stroke:rgb(0%,0%,0%);stroke-opacity:1;stroke-miterlimit:10;" d="M 147.652344 146.992188 L 149.355469 157.644531 "/>
<path style="fill:none;stroke-width:1.2;stroke-linecap:butt;stroke-linejoin:miter;stroke:rgb(0%,0%,100%);stroke-opacity:1;stroke-miterlimit:10;" d="M 169.507812 165.347656 L 177.882812 158.550781 "/>
<path style="fill:none;stroke-width:1.2;stroke-linecap:butt;stroke-linejoin:miter;stroke:rgb(0%,0%,0%);stroke-opacity:1;stroke-miterlimit:10;" d="M 177.882812 158.550781 L 186.257812 151.75 "/>
<path style=" stroke:none;fill-rule:nonzero;fill:rgb(100%,100%,100%);fill-opacity:1;" d="M 166.507812 159.847656 L 173.507812 159.847656 L 173.507812 170.847656 L 166.507812 170.847656 Z M 166.507812 159.847656 "/>
<g style="fill:rgb(0%,0%,100%);fill-opacity:1;">
  <use xlink:href="#glyph0-3" x="166.507812" y="168.510742"/>
</g>
<path style="fill:none;stroke-width:1.2;stroke-linecap:butt;stroke-linejoin:miter;stroke:rgb(0%,0%,0%);stroke-opacity:1;stroke-miterlimit:10;" d="M 186.257812 151.75 L 182.851562 130.445312 "/>
<path style="fill:none;stroke-width:1.2;stroke-linecap:butt;stroke-linejoin:miter;stroke:rgb(0%,0%,0%);stroke-opacity:1;stroke-miterlimit:10;" d="M 180.902344 150.421875 L 178.179688 133.375 "/>
<path style="fill:none;stroke-width:1.2;stroke-linecap:butt;stroke-linejoin:miter;stroke:rgb(0%,0%,0%);stroke-opacity:1;stroke-miterlimit:10;" d="M 186.257812 151.75 L 206.40625 159.457031 "/>
<path style="fill:none;stroke-width:1.2;stroke-linecap:butt;stroke-linejoin:miter;stroke:rgb(0%,0%,0%);stroke-opacity:1;stroke-miterlimit:10;" d="M 182.851562 130.445312 L 162.703125 122.738281 "/>
<path style="fill:none;stroke-width:1.2;stroke-linecap:butt;stroke-linejoin:miter;stroke:rgb(0%,0%,0%);stroke-opacity:1;stroke-miterlimit:10;" d="M 162.703125 122.738281 L 154.328125 129.539062 "/>
<path style="fill:none;stroke-width:1.2;stroke-linecap:butt;stroke-linejoin:miter;stroke:rgb(0%,0%,100%);stroke-opacity:1;stroke-miterlimit:10;" d="M 154.328125 129.539062 L 145.953125 136.339844 "/>
<path style="fill:none;stroke-width:1.2;stroke-linecap:butt;stroke-linejoin:miter;stroke:rgb(0%,0%,0%);stroke-opacity:1;stroke-miterlimit:10;" d="M 164.226562 128.039062 L 157.527344 133.480469 "/>
<path style="fill:none;stroke-width:1.2;stroke-linecap:butt;stroke-linejoin:miter;stroke:rgb(0%,0%,100%);stroke-opacity:1;stroke-miterlimit:10;" d="M 157.527344 133.480469 L 150.828125 138.921875 "/>
<path style=" stroke:none;fill-rule:nonzero;fill:rgb(100%,100%,100%);fill-opacity:1;" d="M 142.953125 130.839844 L 149.953125 130.839844 L 149.953125 141.839844 L 142.953125 141.839844 Z M 142.953125 130.839844 "/>
<g style="fill:rgb(0%,0%,100%);fill-opacity:1;">
  <use xlink:href="#glyph0-3" x="142.953125" y="139.50293"/>
</g>
<path style="fill:none;stroke-width:1.2;stroke-linecap:butt;stroke-linejoin:miter;stroke:rgb(0%,0%,0%);stroke-opacity:1;stroke-miterlimit:10;" d="M 206.40625 159.457031 L 224.488281 147.683594 "/>
<path style="fill:none;stroke-width:1.2;stroke-linecap:butt;stroke-linejoin:miter;stroke:rgb(0%,0%,0%);stroke-opacity:1;stroke-miterlimit:10;" d="M 210.984375 162.53125 L 225.449219 153.113281 "/>
<path style="fill:none;stroke-width:1.2;stroke-linecap:butt;stroke-linejoin:miter;stroke:rgb(0%,0%,0%);stroke-opacity:1;stroke-miterlimit:10;" d="M 212.019531 180.289062 L 206.40625 159.457031 "/>
<path style="fill:none;stroke-width:1.2;stroke-linecap:butt;stroke-linejoin:miter;stroke:rgb(0%,0%,0%);stroke-opacity:1;stroke-miterlimit:10;" d="M 224.488281 147.683594 L 232.878906 154.460938 "/>
<path style="fill:none;stroke-width:1.2;stroke-linecap:butt;stroke-linejoin:miter;stroke:rgb(0%,0%,100%);stroke-opacity:1;stroke-miterlimit:10;" d="M 232.878906 154.460938 L 241.269531 161.238281 "/>
<path style="fill:none;stroke-width:1.2;stroke-linecap:butt;stroke-linejoin:miter;stroke:rgb(0%,0%,0%);stroke-opacity:1;stroke-miterlimit:10;" d="M 227.835938 126.367188 L 224.488281 147.683594 "/>
<path style="fill:none;stroke-width:1.2;stroke-linecap:butt;stroke-linejoin:miter;stroke:rgb(0%,0%,100%);stroke-opacity:1;stroke-miterlimit:10;" d="M 241.269531 161.238281 L 233.566406 181.390625 "/>
<path style="fill:none;stroke-width:1.2;stroke-linecap:butt;stroke-linejoin:miter;stroke:rgb(0%,0%,100%);stroke-opacity:1;stroke-miterlimit:10;" d="M 241.269531 161.238281 L 261.402344 153.480469 "/>
<path style=" stroke:none;fill-rule:nonzero;fill:rgb(100%,100%,100%);fill-opacity:1;" d="M 238.269531 155.738281 L 245.269531 155.738281 L 245.269531 166.738281 L 238.269531 166.738281 Z M 238.269531 155.738281 "/>
<g style="fill:rgb(0%,0%,100%);fill-opacity:1;">
  <use xlink:href="#glyph0-3" x="238.269531" y="164.401367"/>
</g>
<path style="fill:none;stroke-width:1.2;stroke-linecap:butt;stroke-linejoin:miter;stroke:rgb(0%,0%,100%);stroke-opacity:1;stroke-miterlimit:10;" d="M 233.566406 181.390625 L 222.792969 180.839844 "/>
<path style="fill:none;stroke-width:1.2;stroke-linecap:butt;stroke-linejoin:miter;stroke:rgb(0%,0%,0%);stroke-opacity:1;stroke-miterlimit:10;" d="M 222.792969 180.839844 L 212.019531 180.289062 "/>
<path style="fill:none;stroke-width:1.2;stroke-linecap:butt;stroke-linejoin:miter;stroke:rgb(0%,0%,100%);stroke-opacity:1;stroke-miterlimit:10;" d="M 231.667969 176.210938 L 223.050781 175.769531 "/>
<path style="fill:none;stroke-width:1.2;stroke-linecap:butt;stroke-linejoin:miter;stroke:rgb(0%,0%,0%);stroke-opacity:1;stroke-miterlimit:10;" d="M 223.050781 175.769531 L 214.433594 175.328125 "/>
<path style=" stroke:none;fill-rule:nonzero;fill:rgb(100%,100%,100%);fill-opacity:1;" d="M 230.566406 175.890625 L 237.566406 175.890625 L 237.566406 186.890625 L 230.566406 186.890625 Z M 230.566406 175.890625 "/>
<g style="fill:rgb(0%,0%,100%);fill-opacity:1;">
  <use xlink:href="#glyph0-3" x="230.566406" y="184.553711"/>
</g>
<path style="fill:none;stroke-width:1.2;stroke-linecap:butt;stroke-linejoin:miter;stroke:rgb(0%,0%,100%);stroke-opacity:1;stroke-miterlimit:10;" d="M 261.402344 153.480469 L 263.078125 142.824219 "/>
<path style="fill:none;stroke-width:1.2;stroke-linecap:butt;stroke-linejoin:miter;stroke:rgb(0%,0%,0%);stroke-opacity:1;stroke-miterlimit:10;" d="M 263.078125 142.824219 L 264.75 132.167969 "/>
<path style="fill:none;stroke-width:1.2;stroke-linecap:butt;stroke-linejoin:miter;stroke:rgb(0%,0%,100%);stroke-opacity:1;stroke-miterlimit:10;" d="M 256.722656 150.5625 L 258.0625 142.035156 "/>
<path style="fill:none;stroke-width:1.2;stroke-linecap:butt;stroke-linejoin:miter;stroke:rgb(0%,0%,0%);stroke-opacity:1;stroke-miterlimit:10;" d="M 258.0625 142.035156 L 259.398438 133.511719 "/>
<path style=" stroke:none;fill-rule:nonzero;fill:rgb(100%,100%,100%);fill-opacity:1;" d="M 258.402344 147.980469 L 265.402344 147.980469 L 265.402344 158.980469 L 258.402344 158.980469 Z M 258.402344 147.980469 "/>
<g style="fill:rgb(0%,0%,100%);fill-opacity:1;">
  <use xlink:href="#glyph0-3" x="258.402344" y="156.643555"/>
</g>
<path style="fill:none;stroke-width:1.2;stroke-linecap:butt;stroke-linejoin:miter;stroke:rgb(0%,0%,0%);stroke-opacity:1;stroke-miterlimit:10;" d="M 264.75 132.167969 L 247.964844 118.609375 "/>
<path style="fill:none;stroke-width:1.2;stroke-linecap:butt;stroke-linejoin:miter;stroke:rgb(0%,0%,0%);stroke-opacity:1;stroke-miterlimit:10;" d="M 247.964844 118.609375 L 227.835938 126.367188 "/>
<path style="fill:none;stroke-width:1.2;stroke-linecap:butt;stroke-linejoin:miter;stroke:rgb(0%,0%,0%);stroke-opacity:1;stroke-miterlimit:10;" d="M 247.777344 124.125 L 231.671875 130.328125 "/>
<path style="fill:none;stroke-width:1.2;stroke-linecap:butt;stroke-linejoin:miter;stroke:rgb(0%,0%,0%);stroke-opacity:1;stroke-miterlimit:10;" d="M 95.707031 177.136719 L 75.554688 169.429688 "/>
<path style="fill:none;stroke-width:1.2;stroke-linecap:butt;stroke-linejoin:miter;stroke:rgb(0%,0%,0%);stroke-opacity:1;stroke-miterlimit:10;" d="M 95.503906 171.625 L 79.382812 165.460938 "/>
</g>
</svg>

<svg xmlns="http://www.w3.org/2000/svg" xmlns:xlink="http://www.w3.org/1999/xlink" width="300pt" height="300pt" viewBox="0 0 300 300"><defs><symbol overflow="visible"><path d="M.453 1.594v-7.938h4.5v7.938zm.5-.5h3.5v-6.938h-3.5zm0 0"/></symbol><symbol overflow="visible" id="a"><path d="M3.547-5.953c-.65 0-1.164.242-1.547.72-.375.48-.563 1.13-.563 1.952 0 .835.188 1.49.563 1.967.383.48.898.72 1.547.72.644 0 1.156-.24 1.53-.72.376-.476.564-1.132.564-1.968 0-.822-.187-1.474-.562-1.954-.375-.477-.887-.72-1.53-.72zm0-.734c.914 0 1.648.312 2.203.937.55.617.828 1.438.828 2.47 0 1.042-.277 1.87-.828 2.483-.555.617-1.29.922-2.203.922-.93 0-1.668-.305-2.22-.922C.774-1.41.5-2.237.5-3.28c0-1.033.273-1.853.828-2.47.55-.625 1.29-.938 2.22-.938zm0 0"/></symbol><symbol overflow="visible" id="b"><path d="M.89-6.563h.876v2.688H5v-2.688h.89V0H5v-3.125H1.766V0H.89zm0 0"/></symbol><symbol overflow="visible" id="d"><path d="M.89-6.563H2.08l2.906 5.485v-5.484h.86V0H4.656L1.75-5.484V0H.89zm0 0"/></symbol><symbol overflow="visible"><path d="M.406 1.422V-5.64h4V1.42zM.844.97h3.11v-6.157H.843zm0 0"/></symbol><symbol overflow="visible" id="c"><path d="M1.53-.672h2.767V0H.594v-.672c.29-.3.695-.71 1.22-1.234.518-.532.842-.867.967-1.016.26-.28.44-.52.533-.72.1-.194.156-.39.156-.577 0-.31-.11-.565-.33-.764-.218-.196-.5-.297-.843-.297-.25 0-.516.046-.797.14-.273.085-.563.214-.875.39v-.797c.32-.133.617-.234.89-.297.282-.062.536-.093.766-.093.603 0 1.083.152 1.44.453.362.304.546.703.546 1.203 0 .24-.047.468-.14.686-.095.22-.26.477-.485.766-.074.074-.288.293-.64.656-.344.356-.836.856-1.47 1.5zm0 0"/></symbol></defs><g><path fill="#fff" d="M0 0h300v300H0z"/><path d="M36.852 155.988l8.37-6.797" stroke-width="1.2" stroke="#f00" stroke-miterlimit="10" fill="none"/><path d="M45.223 149.19l8.375-6.8" stroke-width="1.2" stroke="#000" stroke-miterlimit="10" fill="none"/><path d="M33.648 152.05l8.375-6.8" stroke-width="1.2" stroke="#f00" stroke-miterlimit="10" fill="none"/><path d="M42.023 145.25l8.375-6.8" stroke-width="1.2" stroke="#000" stroke-miterlimit="10" fill="none"/><path d="M27.25 148.52h8v11h-8zm0 0" fill="#fff"/><use xlink:href="#a" x="27.25" y="157.183" fill="#f00"/><path d="M52 140.422l-1.703-10.652" stroke-width="1.2" stroke="#000" stroke-miterlimit="10" fill="none"/><path d="M50.297 129.77l-1.7-10.653" stroke-width="1.2" stroke="#00f" stroke-miterlimit="10" fill="none"/><path d="M52 140.422l20.152 7.703" stroke-width="1.2" stroke="#000" stroke-miterlimit="10" fill="none"/><path d="M39.598 111.117h19v16h-19zm0 0" fill="#fff"/><use xlink:href="#b" x="39.598" y="119.78" fill="#00f"/><use xlink:href="#c" x="46.612" y="124.663" fill="#00f"/><use xlink:href="#d" x="51.563" y="119.78" fill="#00f"/><path d="M72.152 148.125l16.746-13.598M77.027 150.707l13.4-10.88M75.555 169.43l-3.403-21.305M88.898 134.527l20.153 7.707M109.05 142.234l3.403 21.305M104.38 145.164l2.722 17.043M112.453 163.54l10.078 3.85" stroke-width="1.2" stroke="#000" stroke-miterlimit="10" fill="none"/><path d="M122.53 167.39l10.075 3.852" stroke-width="1.2" stroke="#00f" stroke-miterlimit="10" fill="none"/><path d="M112.453 163.54l-16.746 13.597" stroke-width="1.2" stroke="#000" stroke-miterlimit="10" fill="none"/><path d="M132.605 171.242l8.375-6.8" stroke-width="1.2" stroke="#00f" stroke-miterlimit="10" fill="none"/><path d="M140.98 164.44l8.375-6.795" stroke-width="1.2" stroke="#000" stroke-miterlimit="10" fill="none"/><path d="M125.605 165.742h14v11h-14zm0 0" fill="#fff"/><g fill="#00f"><use xlink:href="#d" x="125.605" y="174.405"/><use xlink:href="#b" x="132.583" y="174.405"/></g><path d="M149.355 157.645l10.075 3.85" stroke-width="1.2" stroke="#000" stroke-miterlimit="10" fill="none"/><path d="M159.43 161.496l10.078 3.852" stroke-width="1.2" stroke="#00f" stroke-miterlimit="10" fill="none"/><path d="M153.184 153.672l8.058 3.082" stroke-width="1.2" stroke="#000" stroke-miterlimit="10" fill="none"/><path d="M161.242 156.754l8.063 3.082M145.953 136.34l1.7 10.652" stroke-width="1.2" stroke="#00f" stroke-miterlimit="10" fill="none"/><path d="M147.652 146.992l1.703 10.653" stroke-width="1.2" stroke="#000" stroke-miterlimit="10" fill="none"/><path d="M169.508 165.348l8.375-6.797" stroke-width="1.2" stroke="#00f" stroke-miterlimit="10" fill="none"/><path d="M177.883 158.55l8.375-6.8" stroke-width="1.2" stroke="#000" stroke-miterlimit="10" fill="none"/><path d="M166.508 159.848h7v11h-7zm0 0" fill="#fff"/><use xlink:href="#d" x="166.508" y="168.511" fill="#00f"/><path d="M186.258 151.75l-3.406-21.305M180.902 150.422l-2.722-17.047M186.258 151.75l20.148 7.707M182.852 130.445l-20.15-7.707M162.703 122.738l-8.375 6.8" stroke-width="1.2" stroke="#000" stroke-miterlimit="10" fill="none"/><path d="M154.328 129.54l-8.375 6.8" stroke-width="1.2" stroke="#00f" stroke-miterlimit="10" fill="none"/><path d="M164.227 128.04l-6.7 5.44" stroke-width="1.2" stroke="#000" stroke-miterlimit="10" fill="none"/><path d="M157.527 133.48l-6.7 5.442" stroke-width="1.2" stroke="#00f" stroke-miterlimit="10" fill="none"/><path d="M142.953 130.84h7v11h-7zm0 0" fill="#fff"/><use xlink:href="#d" x="142.953" y="139.503" fill="#00f"/><path d="M206.406 159.457l18.082-11.773M210.984 162.53l14.465-9.417M212.02 180.29l-5.614-20.833M224.488 147.684l8.39 6.777" stroke-width="1.2" stroke="#000" stroke-miterlimit="10" fill="none"/><path d="M232.88 154.46l8.39 6.778" stroke-width="1.2" stroke="#00f" stroke-miterlimit="10" fill="none"/><path d="M227.836 126.367l-3.348 21.317" stroke-width="1.2" stroke="#000" stroke-miterlimit="10" fill="none"/><path d="M241.27 161.238l-7.704 20.153M241.27 161.238l20.132-7.758" stroke-width="1.2" stroke="#00f" stroke-miterlimit="10" fill="none"/><path d="M238.27 155.738h7v11h-7zm0 0" fill="#fff"/><use xlink:href="#d" x="238.27" y="164.401" fill="#00f"/><path d="M233.566 181.39l-10.773-.55" stroke-width="1.2" stroke="#00f" stroke-miterlimit="10" fill="none"/><path d="M222.793 180.84l-10.773-.55" stroke-width="1.2" stroke="#000" stroke-miterlimit="10" fill="none"/><path d="M231.668 176.21l-8.617-.44" stroke-width="1.2" stroke="#00f" stroke-miterlimit="10" fill="none"/><path d="M223.05 175.77l-8.616-.442" stroke-width="1.2" stroke="#000" stroke-miterlimit="10" fill="none"/><path d="M230.566 175.89h7v11h-7zm0 0" fill="#fff"/><use xlink:href="#d" x="230.566" y="184.554" fill="#00f"/><path d="M261.402 153.48l1.676-10.656" stroke-width="1.2" stroke="#00f" stroke-miterlimit="10" fill="none"/><path d="M263.078 142.824l1.672-10.656" stroke-width="1.2" stroke="#000" stroke-miterlimit="10" fill="none"/><path d="M256.723 150.563l1.34-8.528" stroke-width="1.2" stroke="#00f" stroke-miterlimit="10" fill="none"/><path d="M258.063 142.035l1.335-8.523" stroke-width="1.2" stroke="#000" stroke-miterlimit="10" fill="none"/><path d="M258.402 147.98h7v11h-7zm0 0" fill="#fff"/><use xlink:href="#d" x="258.402" y="156.644" fill="#00f"/><path d="M264.75 132.168l-16.785-13.56M247.965 118.61l-20.13 7.757M247.777 124.125l-16.105 6.203M95.707 177.137l-20.152-7.707M95.504 171.625l-16.12-6.164" stroke-width="1.2" stroke="#000" stroke-miterlimit="10" fill="none"/></g></svg>
